X:1
T:Jingle Bells (chorus)
C:James Lord Pierpont (1857)
M:4/4
L:1/8
Q:1/4=120
K:G
B2 B2 B4 | B2 B2 B4 | B2 B2 G2 A2 | B8 |
c2 c2 c2 c2 | c2 B2 B2 B2 | B2 A2 A2 B2 | A4 D4 |
B2 B2 B4 | B2 B2 B4 | B2 B2 G2 A2 | B8 |
c2 c2 c2 c2 | c2 B2 B2 B2 | d2 d2 c2 A2 | G8 |]
